icons/vpc_eip.svg

<svg class="w-6 h-6" height="48" width="48" xmlns="http://www.w3.org/2000/svg"><path d="M43.62 24.058v-.264l.122.132-.122.132zm-32.694 6.794A6.933 6.933 0 014 23.926 6.933 6.933 0 0110.926 17a6.933 6.933 0 016.925 6.926 6.932 6.932 0 01-6.925 6.926zm34.913-7.606l-6.441-6.936-1.465 1.361 4.88 5.255H19.792C19.293 18.474 15.51 15 10.926 15 6.004 15 2 19.004 2 23.926c0 4.922 4.004 8.926 8.926 8.926 4.584 0 8.367-3.474 8.866-7.926h23.021l-4.88 5.255 1.465 1.361 6.441-6.935a1 1 0 000-1.361z" fill="#D45B07" fill-rule="evenodd"></path></svg>

<?xml version="1.0" encoding="UTF-8"?>
<svg width="48px" height="48px" viewBox="0 0 48 48" version="1.1" xmlns="http://www.w3.org/2000/svg" xmlns:xlink="http://www.w3.org/1999/xlink">
    <title>Icon-Resource/Compute/Res_Amazon-EC2_Elastic-IP-Address_48_Light</title>
    <g id="Icon-Resource/Compute/Res_Amazon-EC2_Elastic-IP-Address_48" stroke="none" stroke-width="1" fill="none" fill-rule="evenodd">
        <path d="M43.62,24.058 L43.62,23.794 L43.742,23.926 L43.62,24.058 Z M10.926,30.852 C7.106,30.852 4,27.746 4,23.926 C4,20.107 7.106,17 10.926,17 C14.745,17 17.851,20.107 17.851,23.926 C17.851,27.746 14.745,30.852 10.926,30.852 L10.926,30.852 Z M45.839,23.246 L39.398,16.31 L37.933,17.671 L42.813,22.926 L19.792,22.926 C19.293,18.474 15.51,15 10.926,15 C6.004,15 2,19.004 2,23.926 C2,28.848 6.004,32.852 10.926,32.852 C15.51,32.852 19.293,29.378 19.792,24.926 L42.813,24.926 L37.933,30.181 L39.398,31.542 L45.839,24.607 C46.195,24.223 46.195,23.629 45.839,23.246 L45.839,23.246 Z" id="Amazon-EC2-Elastic-IP-address_Resource-Icon_light-bg" fill="#D45B07"></path>
    </g>
</svg>
